common/src/main/resources/icons/ide/runAnything/openRecentProject.svg

<svg xmlns="http://www.w3.org/2000/svg" width="16" height="16" fill="#A1887F" data-big="true" viewBox="0 0 24 24"><path d="M13.5 7a6.5 6.5 0 0 1 6.5 6.5 6.5 6.5 0 0 1-6.5 6.5H10v-2h3.5c2.5 0 4.5-2 4.5-4.5S16 9 13.5 9H7.83l3.08 3.09L9.5 13.5 4 8l5.5-5.5 1.42 1.41L7.83 7zM6 18h2v2H6z"/></svg>

<!--
  - The MIT License (MIT)
  -
  - Copyright (c) 2015-2024 Elior "Mallowigi" Boukhobza
  -
  - Permission is hereby granted, free of charge, to any person obtaining a copy
  - of this software and associated documentation files (the "Software"), to deal
  - in the Software without restriction, including without limitation the rights
  - to use, copy, modify, merge, publish, distribute, sublicense, and/or sell
  - copies of the Software, and to permit persons to whom the Software is
  - furnished to do so, subject to the following conditions:
  -
  - The above copyright notice and this permission notice shall be included in all
  - copies or substantial portions of the Software.
  -
  - THE SOFTWARE IS PROVIDED "AS IS", WITHOUT WARRANTY OF ANY KIND, EXPRESS OR
  - IMPLIED, INCLUDING BUT NOT LIMITED TO THE WARRANTIES OF MERCHANTABILITY,
  - FITNESS FOR A PARTICULAR PURPOSE AND NONINFRINGEMENT. IN NO EVENT SHALL THE
  - AUTHORS OR COPYRIGHT HOLDERS BE LIABLE FOR ANY CLAIM, DAMAGES OR OTHER
  - LIABILITY, WHETHER IN AN ACTION OF CONTRACT, TORT OR OTHERWISE, ARISING FROM,
  - OUT OF OR IN CONNECTION WITH THE SOFTWARE OR THE USE OR OTHER DEALINGS IN THE
  - SOFTWARE.
  -->


<svg data-big="true" xmlns="http://www.w3.org/2000/svg" version="1.1" width="16px" height="16px" viewBox="0 0 24 24"
     fill="#A1887F">
  <path
    d="M13.5,7A6.5,6.5 0 0,1 20,13.5A6.5,6.5 0 0,1 13.5,20H10V18H13.5C16,18 18,16 18,13.5C18,11 16,9 13.5,9H7.83L10.91,12.09L9.5,13.5L4,8L9.5,2.5L10.92,3.91L7.83,7H13.5M6,18H8V20H6V18Z"/>
</svg>
